!!!!SEGMENT: pl-wtm--r-1503_stefani-jozef--na-bielanach.krn
!!!cenid: 18xx:2233
!!!COM: Stefani, Józef
!!!COM-rismid: pe30024097
!!!CDT: 1800/04/16-1876/03/19
!!!CNT: Polish
!!!OTL: Na Bielanach
!!!PDT:
!!!AGN:
!!!SMS-siglum: PL-Wtm
!!!SMS-shelfmark: R 1503
!!!SMS-shelfwork: W
!!!SMS-variant:
!!!SMS-altvar:
!!!NIFC-rismid: 1001120237
!!!URL-scan: http://repozytorium.nifc.pl/skany/pl-wtm-nut--r1503
!!!ONB-nifc:
!!!key:
**kern	**kern	**dynam	**kern	**text	**text	**dynam
*part3	*part2	*part2	*part1	*part1	*part1	*part1
*staff3	*staff2	*	*staff1	*staff1	*staff1	*
*Iempty	*Iforte	*	*Iempty	*	*	*
*	*I"Fortepian	*	*I"Śpiew	*	*	*
*	*I'pf	*	*I'V	*	*	*
*clefF4	*clefG2	*	*clefG2	*	*	*
*k[b-]	*k[b-]	*	*k[b-]	*	*	*
*F:	*F:	*	*F:	*	*	*
*M3/4	*M3/4	*	*M3/4	*	*	*
=1	=1	=1	=1	=1	=1	=1
*2\right	*2\right	*	*2\right	*	*	*
!	!	!	!LO:TX:t=P:problem:all\middle or right:global	!	!	!
!	!LO:TUP:a:problem:klamra łukowa	!	!LO:TX:a:t=Allegro moderato.	!	!	!
4FF/ 4F	12f/L	f	2.r	.	.	.
.	12e/	.	.	.	.	.
.	12f/J	.	.	.	.	.
4AA\ 4A	4a/	.	.	.	.	.
4C\ 4c	4cc\	.	.	.	.	.
=2	=2	=2	=2	=2	=2	=2
!	!	!	!LO:TX:t=Na Bielanach (&colon; pod Krakowem &colon;)\nPoezya Wincentego Pola,\nułożona do śpiewu z towarzyszeniem\nFortepianu\nprzez\nJózefa Stefaniego.\n	!	!	!
8.G\L 8.g	8.gg\L	.	2.r	.	.	.
16F\Jk 16f	16ff\Jk	.	.	.	.	.
!LO:TX:t=P:problem:2\right:global	!LO:TX:t=P:problem:2\right:global	!	!	!	!	!
2D\ 2d	2dd\	.	.	.	.	.
=3	=3	=3	=3	=3	=3	=3
!	!LO:TUP:a:problem:klamra łukowa:global	!	!	!	!	!
!	!LO:TUP:b	!	!	!	!	!
4GG\ 4G	12g/L	.	2.r	.	.	.
.	12f#X/	.	.	.	.	.
.	12g/J	.	.	.	.	.
4BB-\ 4B-	4b-\	.	.	.	.	.
4D\ 4d	4dd\	.	.	.	.	.
=4	=4	=4	=4	=4	=4	=4
8C\ 8c	8cc\	.	2.r	.	.	.
8CC/ 8C	8g\ 8b- 8ee	.	.	.	.	.
4FF/ 4F	4f\ 4a 4ff	.	.	.	.	.
4r	4r	.	.	.	.	.
!!LO:LB:g=original
=5	=5	=5	=5	=5	=5	=5
4r	(8ee\L	p	2.r	.	.	.
.	8dd\J)	.	.	.	.	.
4D\ 4A 4c	4f#X/	.	.	.	.	.
4G\ 4B-	4g/	.	.	.	.	.
=6	=6	=6	=6	=6	=6	=6
4r	(8dd\L	.	2.r	.	.	.
.	8cc\J)	.	.	.	.	.
4C\ 4G 4B-	4e/	.	.	.	.	.
4F\ 4A	4f/	.	.	.	.	.
=7	=7	=7	=7	=7	=7	=7
.	(<8qg/	f	.	.	.	.
8.GG/L 8.G	8.g\L) 8.gg	.	2.r	.	.	.
16GG/Jk 16G	16g\Jk 16gg	.	.	.	.	.
4FF/ 4F	4f/ 4ff	.	.	.	.	.
4DD/ 4D	4d/ 4dd	.	.	.	.	.
=8	=8	=8	=8	=8	=8	=8
4CC/ 4C	4c/ 4cc	.	2.r	.	.	.
4CC/ 4C	4cc\ 4ee 4gg 4ccc	.	.	.	.	.
!	!LO:TX:b:t=V&colon; S&colon;	!	!	!	!	!
4r	4r	.	.	.	.	.
!!LO:PB:g=original
=9||	=9||	=9||	=9||	=9||	=9||	=9||
*^	*	*	*	*	*	*
4r	2.FF\	8.f/L 8.a	p	8.a/	Z da-	I	.
.	.	16g/Jk 16b-	.	16b-/	-la	każ-	.
4F/	.	4a\ 4cc	.	4cc\	Ta-	-de-	.
4F/	.	4b-\ 4dd	.	4dd\	-try	-mu	.
=10	=10	=10	=10	=10	=10	=10	=10
4r	2.FF\	8.a/L 8.cc	.	8.cc\	wid-	mi-	.
.	.	16f/Jk 16a	.	16a/	-ne	-ło	.
!	!	!	!	!LO:TX:t=P:problem:2\right:global	!	!	!
4F/	.	2f\ 2a 2ff	.	2ff\	tam	tu	.
4F/	.	.	.	.	.	.	.
=11	=11	=11	=11	=11	=11	=11	=11
!	!	!LO:TX:t=P:problem:usunięte d	!	!	!	!	!
4r	2.DD\	8.f/L	.	8.f/	Bli-	Chwy-	.
.	.	16e/Jk 16g	.	16g/	-żej	-cić	.
4D/	.	4f/ 4a	.	4a/	sta-	pier-	.
4D/	.	4g/ 4b-	.	4b-/	-ry	-sią	.
=12	=12	=12	=12	=12	=12	=12	=12
4r	2.DD\	8.f/L 8.a	.	8.a/	Kra-	te-	.
.	.	16d/Jk 16f	.	16f/	-ków	-go	.
4D/	.	2d/ 2f 2dd	.	2dd\	sam	tchu	.
4D/	.	.	.	.	.	.	.
*v	*v	*	*	*	*	*	*
!!LO:LB:g=original
=13	=13	=13	=13	=13	=13	=13
!LO:TX:t=P:problem:rytm:4 poprawione na 2	!	!	!	!	!	!
4AAA/ 4AA	4r	.	8.ee\	A	I	.
.	.	.	16dd\	w do-	po	.
!	!LO:TX:t=P:problem:usunięte A	!	!	!	!	!
4r	4G/ 4c#X 4g	.	4cc#X\	-li-	świe-	.
!	!LO:TX:t=P:problem:usunięte A	!	!	!	!	!
4r	4G/ 4c# 4g	.	4b-\	-nie	-cie	.
=14	=14	=14	=14	=14	=14	=14
!LO:TX:t=P:problem:rytm:4 poprawione na 2	!	!	!	!	!	!
4DD/ 4D	4r	.	8.a/	Wi-	pu-	.
.	.	.	16g/	-sły	-ścić	.
4r	4A/ 4d 4f	.	2f/	prąd;	wzrok	.
4r	4A/ 4d 4f	.	.	.	.	.
=15	=15	=15	=15	=15	=15	=15
2.GGG/ 2.GG	4r	.	8.e/	A	I	.
.	.	.	16d#X/	w do-	po	.
.	4G/ 4B- 4e	.	4e/	-li-	świe-	.
.	4G/ 4B- 4e	.	4b-/	-nie	-cie	.
=16	=16	=16	=16	=16	=16	=16
8AAA\ 8AA	8G</ 8A< 8c#X	.	8.a/	Wi-	pu-	.
8r	8r	.	.	.	.	.
.	.	.	16c#X/	-sły	-ścić	.
2DD\ 2D	2F</ 2A< 2d	.	2d/	prąd;	wzrok	.
!!LO:LB:g=original
=17	=17	=17	=17	=17	=17	=17
*^	*	*	*	*	*	*
4r	2.GG\	(12e/L	.	2.r	.	.	.
.	.	12d#X/	.	.	.	.	.
.	.	12e/J	.	.	.	.	.
4BB-/ 4E	.	12f/L	.	.	.	.	.
.	.	12f#X/	.	.	.	.	.
.	.	12g/J	.	.	.	.	.
4BB-/ 4E	.	12g#X/L	.	.	.	.	.
.	.	12a/	.	.	.	.	.
.	.	12b-/J)	.	.	.	.	.
=18	=18	=18	=18	=18	=18	=18	=18
!	!	!	!LO:HP:t=crescendo	!	!	!	!
4r	2.AA\	(12a/L	<	2.r	.	.	.
.	.	12g#X/	.	.	.	.	.
.	.	12a/J	.	.	.	.	.
!	!	!LO:TUP:a	!	!	!	!	!
4D/ 4F	.	12b-\L	.	.	.	.	.
.	.	12bn\	.	.	.	.	.
.	.	12cc\J	.	.	.	.	.
!	!	!LO:TUP:a	!	!	!	!	!
4D/ 4F	.	12cc#X\L	.	.	.	.	.
.	.	12dd\	.	.	.	.	.
.	.	12dd#X\J)	.	.	.	.	.
=19	=19	=19	=19	=19	=19	=19	=19
4r	2.AA\	(16ee\LL	<	2.r	.	.	.
.	.	16dd#X\	.	.	.	.	.
.	.	16ee\	.	.	.	.	.
.	.	16ff\JJ	.	.	.	.	.
4E/ 4G	.	16ff#X\LL	.	.	.	.	.
.	.	16gg\	.	.	.	.	.
.	.	16gg#X\	.	.	.	.	.
.	.	16aa\JJ	.	.	.	.	.
4E/ 4G	.	16bb-\LL	.	.	.	.	.
.	.	16bbn\	.	.	.	.	.
.	.	16ccc\	[	.	.	.	.
.	.	16ccc#X\JJ	.	.	.	.	.
*v	*v	*	*	*	*	*	*
=20	=20	=20	=20	=20	=20	=20
8D\ 8F	8ddd\)	f	2.r	.	.	.
8r	8r	.	.	.	.	.
2GG\ 2G	2g^/	.	.	.	.	.
!!LO:LB:g=original
=21	=21	=21	=21	=21	=21	=21
(<8qF#X/	.	.	.	.	.	.
!	!	!	!LO:TUP:problem:brak klamry, numer	!	!	!LO:DY:a
4C\) 4G	4c^/ 4e	f	12e/L	Tam	A	f
.	.	.	12f#X/J	.	.	.
.	.	.	12g/	na	kto	.
4C\ 4G	4c/ 4e	p	4cc\	gó-	wie-	.
4C\ 4G	4c/ 4e	.	4ee\	-rach	-le	.
=22	=22	=22	=22	=22	=22	=22
(<8qF#X/	.	.	.	.	.	.
4C\) 4G	4Bn/ 4f	f	8.dd\	Bo-	w świe-	.
.	.	.	16bn\	-ży	-cie	.
4C\ 4G	4c/ 4e	p	2cc\	tron,	znał	.
4C\ 4G	4c/ 4e	.	.	.	.	.
=23	=23	=23	=23	=23	=23	=23
(<8qF#X/	.	.	.	.	.	.
!	!	!	!LO:TUP:problem:brak klamry, numer	!	!	!
4C\) 4G	4c/ 4e	f	12e/L	Tam	Ten	.
.	.	.	12f#X/J	.	.	.
.	.	.	12g/	za	sta-	.
4C\ 4G	4c/ 4e	p	4cc\	dzie-	-ną-	.
4C\ 4G	4c/ 4e	.	4ee\	-je	-wszy	.
=24	=24	=24	=24	=24	=24	=24
(<8qF#X/	.	.	.	.	.	.
4C\) 4G	4Bn/ 4f	f	8.dd\	mó-	wśród	.
.	.	.	16bn\	-wi	tych	.
2C\ 2G	2c^/ 2e	.	2cc\	dzwon	skał	.
!!LO:PB:g=original
=25	=25	=25	=25	=25	=25	=25
*	*Xtuplet	*	*	*	*	*
(<8qF#X/	.	.	.	.	.	.
4C\) 4G	12e'/L	f	2.r	.	.	.
.	(12f#X/	.	.	.	.	.
.	12g/J)	.	.	.	.	.
4C\ 4G	4e/ 4cc	.	.	.	.	.
4C\ 4G	4g/ 4cc 4ee	.	.	.	.	.
=26	=26	=26	=26	=26	=26	=26
*rep	*	*	*	*	*	*
(<8qF#X/	.	.	.	.	.	.
4C\) 4G	8.f/L 8.g 8.dd	.	2.r	.	.	.
.	16f/Jk 16g 16bn	.	.	.	.	.
4C\ 4G	2e/ 2g 2cc	.	.	.	.	.
4C\ 4G	.	.	.	.	.	.
*Xrep	*	*	*	*	*	*
=27	=27	=27	=27	=27	=27	=27
*rep	*	*	*	*	*	*
(<8qF#X/	.	.	.	.	.	.
4C\) 4G	12e'/L	.	2.r	.	.	.
.	(12f#X/	.	.	.	.	.
.	12g/J)	.	.	.	.	.
4C\ 4G	4e/ 4cc	.	.	.	.	.
4C\ 4G	4g/ 4cc 4ee	.	.	.	.	.
*Xrep	*	*	*	*	*	*
=28	=28	=28	=28	=28	=28	=28
8qF#X/	.	.	.	.	.	.
4C\ 4G	8.f/L 8.g 8.dd	.	2.r	.	.	.
.	16f/Jk 16g 16bn	.	.	.	.	.
2C\ 2G	2e^/ 2g 2cc	.	.	.	.	.
!!LO:LB:g=original
=29	=29	=29	=29	=29	=29	=29
!	!LO:TX:b:t=rall&colon;	!	!LO:TX:a:t=rall&colon;	!	!	!
4CC/ 4C	8.g/L 8.b-	p	8.b-/	A	Poj-	.
.	16f/Jk 16a	.	16a/	tu	-dzie	.
!	!	!	!LO:TX:t=P:problem:tekst: dalej poprawione na może	!	!	!
4CC/ 4C	4e/ 4g	.	4g/	ci-	mo-	.
4CC#X/ 4C#X	4e/ 4a	.	4a/	-chy	-że	.
=30	=30	=30	=30	=30	=30	=30
8.DD/L 8.D	8.d/L 8.f	.	8.f/	Bo-	da-	.
16BBB-/Jk 16BB-	16d/Jk 16g	.	16g/	-ży	-lej	.
2AAA/ 2AA	2c#X/ 2a	.	2a/	kąt	krok	.
=31	=31	=31	=31	=31	=31	=31
!	!LO:TX:t=P:problem:usunięty znak d-	!	!	!	!	!
4BBB-/ 4BB-	8.B-/L 8.d 8.g	.	8.g/	A	Poj-	.
.	16B-/Jk 16d-X	.	16d-X/	tu	-dzie	.
4CC/ 4C	4A/ 4c	.	4c/	ci-	mo-	.
4CC/ 4C	4A/ 4c 4f	.	4f/	-chy	-że	.
=32	=32	=32	=32	=32	=32	=32
4CC\ 4C	4G</ 4B- 4c 4e	.	8.a/	Bo-	da-	.
.	.	.	16g/	-ży	-lej	.
2FF\ 2F	2A</ 2c 2f	.	2f/	kąt.	krok?	.
!!LO:LB:g=original
=33	=33	=33	=33	=33	=33	=33
!	!LO:TX:a:t=a tempo	!	!	!	!	!
(16F\LL	8.f/L 8.a	f	2.r	.	.	.
16E\	.	.	.	.	.	.
16F\	.	.	.	.	.	.
16E\JJ	16g/Jk 16b-	.	.	.	.	.
*rep	*	*	*	*	*	*
16F\LL	4a\ 4cc	.	.	.	.	.
16E\	.	.	.	.	.	.
16F\	.	.	.	.	.	.
16E\JJ	.	.	.	.	.	.
*Xrep	*	*	*	*	*	*
*rep	*	*	*	*	*	*
16F\LL	4b-\ 4dd	.	.	.	.	.
16E\	.	.	.	.	.	.
16F\	.	.	.	.	.	.
16E\JJ	.	.	.	.	.	.
*Xrep	*	*	*	*	*	*
=34	=34	=34	=34	=34	=34	=34
)(16F\LL	8.a/L 8.cc	.	2.r	.	.	.
16E\	.	.	.	.	.	.
16F\	.	.	.	.	.	.
16E\JJ	16f/Jk 16a	.	.	.	.	.
*rep	*	*	*	*	*	*
16F\LL	2f/ 2a 2ff	.	.	.	.	.
16E\	.	.	.	.	.	.
16F\	.	.	.	.	.	.
16E\JJ	.	.	.	.	.	.
*Xrep	*	*	*	*	*	*
*rep	*	*	*	*	*	*
16F\LL	.	.	.	.	.	.
16E\	.	.	.	.	.	.
16F\	.	.	.	.	.	.
16E\JJ	.	.	.	.	.	.
*Xrep	*	*	*	*	*	*
=35	=35	=35	=35	=35	=35	=35
!	!LO:TX:t=P:problem:usunięte d	!	!	!	!	!
)(>16D/LL	8.f/L	.	2.r	.	.	.
16C#X/	.	.	.	.	.	.
16D/	.	.	.	.	.	.
16C#/JJ	16e/Jk 16g	.	.	.	.	.
*rep	*	*	*	*	*	*
16D/LL	4f/ 4a	.	.	.	.	.
16C#/	.	.	.	.	.	.
16D/	.	.	.	.	.	.
16C#/JJ	.	.	.	.	.	.
*Xrep	*	*	*	*	*	*
*rep	*	*	*	*	*	*
16D/LL	4g/ 4b-	.	.	.	.	.
16C#/	.	.	.	.	.	.
16D/	.	.	.	.	.	.
16C#/JJ	.	.	.	.	.	.
*Xrep	*	*	*	*	*	*
=36	=36	=36	=36	=36	=36	=36
)(16D/LL	8.f/L 8.a	.	2.r	.	.	.
16C#X/	.	.	.	.	.	.
16D/	.	.	.	.	.	.
16C#/JJ	16d/Jk 16f	.	.	.	.	.
16D/LL	2d/ 2f 2dd	.	.	.	.	.
16C#/	.	.	.	.	.	.
16D/	.	.	.	.	.	.
16C#/JJ	.	.	.	.	.	.
16D/LL	.	.	.	.	.	.
16C#/	.	.	.	.	.	.
16D/	.	.	.	.	.	.
16Cn/JJ)	.	.	.	.	.	.
!!LO:LB:g=original
=37	=37	=37	=37	=37	=37	=37
*^	*	*	*	*	*	*
4r	4BB-\	(8ee\L	p	2.r	.	.	.
.	.	8dd\J)	.	.	.	.	.
!LO:TX:t=P:problem:usunięty znak An	!	!	!	!	!	!	!
4D\ 4A 4c	2ryy	4f#X^/	.	.	.	.	.
4G\ 4B-	.	4g/	.	.	.	.	.
*v	*v	*	*	*	*	*	*
=38	=38	=38	=38	=38	=38	=38
4r	(8dd\L	.	2.r	.	.	.
.	8cc\J)	.	.	.	.	.
4C\ 4G 4B-	4e^/	.	.	.	.	.
4F\ 4A	4f/	.	.	.	.	.
=39	=39	=39	=39	=39	=39	=39
!	!	!LO:DY:t=for.	!	!	!	!
.	8qdd/	f	.	.	.	.
*^	*	*	*	*	*	*
4r	2.C\	(8cc\L	.	2.r	.	.	.
.	.	8bn\	.	.	.	.	.
4G/ 4B-	.	8cc\)	.	.	.	.	.
.	.	8cc#X'\	.	.	.	.	.
4G/ 4B-	.	8dd'\	.	.	.	.	.
.	.	8ee'\J	.	.	.	.	.
=40	=40	=40	=40	=40	=40	=40	=40
8A/	8F\	8ff\	.	2.r	.	.	.
8r	8ryy	8r	.	.	.	.	.
8FF/L 8F	2ryy	4f/	.	.	.	.	.
8EE-X/ 8E-X	.	.	.	.	.	.	.
!	!	!LO:TX:b:t=V&colon; S&colon;	!	!	!	!	!
8DD/ 8D	.	4r	.	.	.	.	.
8CC/J 8C	.	.	.	.	.	.	.
!!LO:PB:g=original
=41	=41	=41	=41	=41	=41	=41	=41
*	*	*tuplet	*	*	*	*	*
!	!	!LO:TUP:a:problem:klamra łukowa	!	!LO:TUP:problem:brak klamry, numer	!	!	!
4r	2.BBB-\	12d/L 12f	p	12f/L	Pię-	Bo	.
.	.	12c#X/ 12en	.	12en/J	.	.	.
.	.	12d/J 12f	.	12f/	-kne	ta-	.
4BB-/	.	4d/ 4b-	.	4b-\	tu-	-je-	.
4BB-/	.	4f/ 4dd	.	4dd\	-taj	-mny	.
=42	=42	=42	=42	=42	=42	=42	=42
*rep	*rep	*	*	*	*	*	*
4r	2.BBB-\	8.e-X/L 8.g-X 8.cc	.	8.cc\	z da-	ja-	.
.	.	16c/Jk 16e- 16a	.	16an\	-wnych	-kiś	.
4BB-/	.	2d/ 2b-	.	2b-\	lat,	wiew	.
4BB-/	.	.	.	.	.	.	.
*Xrep	*Xrep	*	*	*	*	*	*
=43	=43	=43	=43	=43	=43	=43	=43
*rep	*rep	*	*	*	*	*	*
!	!	!LO:TUP:a:problem:klamra łukowa	!	!LO:TUP:problem:brak klamry, numer	!	!	!
4r	2.BBB-\	12d/L 12f	.	12f/L	Ży-	Tchnie	.
.	.	12c#X/ 12en	.	12en/J	.	.	.
.	.	12d/J 12f	.	12f/	-wy	w pu-	.
4BB-/	.	4d/ 4b-	.	4b-\	tu-	-sty-	.
4BB-/	.	4f/ 4dd	.	4dd\	-taj	-ni	.
*Xrep	*Xrep	*	*	*	*	*	*
=44	=44	=44	=44	=44	=44	=44	=44
*rep	*rep	*	*	*	*	*	*
4r	2.BBB-\	8.e-X/L 8.g-X 8.cc	.	8.cc\	du-	od	.
.	.	16c/Jk 16e- 16a	.	16a\	-cha	ty	.
4BB-/	.	2d/ 2b-	.	2b-\	świat	drzew,	.
4BB-/	.	.	.	.	.	.	.
*Xrep	*Xrep	*	*	*	*	*	*
*v	*v	*	*	*	*	*	*
!!LO:LB:g=original
=45	=45	=45	=45	=45	=45	=45
4DD/ 4D	4r	.	8.f#X/	Śród	Jak-	.
.	.	.	16a/	tych	-by	.
4r	4A/ 4c 4d 4f#X	.	4.dd\	la-	mo-	.
4r	4A/ 4c 4d 4f#	.	.	.	.	.
.	.	.	8cc\	-sów,	-dłów	.
=46	=46	=46	=46	=46	=46	=46
4GG\ 4G	4r	.	8.b-\	śród	ci-	.
.	.	.	16a/	tych	-chy	.
4r	4B-/ 4d 4g	.	(>4.g/	skał	szmer:	.
4r	4B-/ 4d 4g	.	.	.	.	.
.	.	.	8fn/)	.	.	.
=47	=47	=47	=47	=47	=47	=47
4CC/ 4C	4r	.	8.en/	Grunt	Bo	.
.	.	.	16g/	po-	kto	.
4r	4G/ 4B- 4c 4e	.	4.cc\	-świę-	prze-	.
4r	4G/ 4B- 4c 4e	.	.	.	.	.
.	.	.	8b-\	-cił	-szedł	.
=48	=48	=48	=48	=48	=48	=48
*	*	*	*^	*	*	*
4FF/ 4F	4r	.	8.a/	8.ryy	już	próg	.
.	.	.	16cc/	16g\	sam	tych	.
4r	4A/ 4c 4f	.	2f/	2ryy	Pan	bram	.
4r	4A/ 4c 4f	.	.	.	.	.	.
*	*	*	*v	*v	*	*	*
!!LO:LB:g=original
=49	=49	=49	=49	=49	=49	=49
8.BB-/L	8.B-/L 8.d 8.g	.	8.g/	Dla	Już	.
16GG/Jk	16d/Jk 16g 16b-	.	16b-/	sług	dla	.
4C/	4c/ 4f 4a	.	4a/	swo-	nie-	.
4C/	4A/ 4c 4f	.	4f/	-ich,	-go	.
=50	=50	=50	=50	=50	=50	=50
8CC/ 8C	8G/ 8B- 8c 8e	.	8.cc\	dla	gi-	.
8r	8r	.	.	.	.	.
.	.	.	16g/	swych	-nie	.
2FF/ 2F	2A/ 2c 2f	.	2a/	ścian	tam	.
=51	=51	=51	=51	=51	=51	=51
!	!	!	!LO:TX:t=P:problem:t. 51-52 wykreślony tekst Dla sług twoich dla swych ścian	!	!	!
4BBB-/ 4BB-	4B-/ 4d 4g	.	8.g/	By	Spraw	.
.	.	.	16b-/	go	świa-	.
4CC/ 4C	4A/ 4c 4f	.	4a/	wszel-	-to-	.
4CC/ 4C	4A/ 4c 4f	.	4ff\	-ki	-wych	.
=52	=52	=52	=52	=52	=52	=52
8CC/ 8C	8G/ 8B- 8c 8e	.	8.g/	czło-	nę-	.
8r	8r	.	.	.	.	.
.	.	.	16cc\	-wiek	-tny	.
2FF\ 2F	2A/ 2c 2f	.	2f/	znał...	wir	.
!!LO:LB:g=original
=53	=53	=53	=53	=53	=53	=53
*	*Xtuplet	*	*	*	*	*
(<8qF#X/	.	.	.	.	.	.
4C\) 4G	12e'/L	f	2.r	.	.	.
.	(12f#X/	.	.	.	.	.
.	12g/J)	.	.	.	.	.
4C\ 4G	4e/ 4cc	.	.	.	.	.
4C\ 4G	4g\ 4cc 4ee	.	.	.	.	.
=54	=54	=54	=54	=54	=54	=54
*rep	*	*	*	*	*	*
(<8qF#X/	.	.	.	.	.	.
4C\) 4G	8.f/L 8.g 8.dd	.	2.r	.	.	.
.	16f/Jk 16g 16bn	.	.	.	.	.
4C\ 4G	2e/ 2g 2cc	.	.	.	.	.
4C\ 4G	.	.	.	.	.	.
*Xrep	*	*	*	*	*	*
=55	=55	=55	=55	=55	=55	=55
*rep	*	*	*	*	*	*
(<8qF#X/	.	.	.	.	.	.
4C\) 4G	12e'/L	.	2.r	.	.	.
.	(12f#X/	.	.	.	.	.
.	12g/J)	.	.	.	.	.
4C\ 4G	4e/ 4cc	.	.	.	.	.
4C\ 4G	4g/ 4cc 4ee	.	.	.	.	.
*Xrep	*	*	*	*	*	*
=56	=56	=56	=56	=56	=56	=56
(<8qF#X/	.	.	.	.	.	.
4C\) 4G	8.f/L 8.g 8.dd	.	2.r	.	.	.
.	16f/Jk 16g 16bn	.	.	.	.	.
2C\ 2G	2e/ 2g 2cc	.	.	.	.	.
!!LO:LB:g=original
=57	=57	=57	=57	=57	=57	=57
!	!	!	!LO:TX:t=P:problem:t. 57-58 wykreślony tekst: By go wszelki człowiek znał	!	!	!
!	!	!	!LO:TX:a:t=rall&colon;	!	!	!
4CC/ 4C	8.g/L 8.b-	p	8.b-/	Dla	Już	.
.	16f/Jk 16a	.	16a/	sług	dla	.
4CC/ 4C	4e/ 4g	.	4g/	swo-	nie-	.
4CC#X/ 4C#X	4e/ 4a	.	4a/	-ich,	-go	.
=58	=58	=58	=58	=58	=58	=58
8.DD/L 8.D	8.d/L 8.f	.	8.f/	dla	gi-	.
16BBB-/Jk 16BB-	16d/Jk 16g	.	16g/	swych	-nie	.
2AAA/ 2AA	2c#X/ 2a	.	2a/	scian	tam	.
=59	=59	=59	=59	=59	=59	=59
!	!LO:TX:t=P:problem:usunięty znak d-	!	!	!	!	!
4BBB-/ 4BB-	8.B-/L 8.d 8.g	.	8.g/	By	Spraw	.
.	16B-/Jk 16d-X	.	16d-X/	go	swia-	.
!	!	!	!LO:TX:t=P:problem:tekst: wszelki poprawione na wszelki wszelki	!	!	!
4CC/ 4C	4A/ 4c	.	(>16c/LL	wszel-	-to-	.
.	.	.	16f/JJ)	.	.	.
.	.	.	(>16a/LL	-ki	-wych	.
.	.	.	16cc/JJ)	.	.	.
4CC/ 4C	4A/ 4c 4f	.	8.ff\	wszel-	.	.
.	.	.	16cc\	-ki	.	.
=60	=60	=60	=60	=60	=60	=60
.	.	.	8qff;/	.	.	.
4CC;/ 4C	4G;/ 4B- 4c 4e	.	8.ee;\	czło-	nę-	.
.	.	.	16cc\	-wiek	-tny	.
(16F\LL	2A/ 2c 2f	.	2f\ 2ff	znał....	wir	.
16E\	.	.	.	.	.	.
16F\	.	.	.	.	.	.
16E\JJ	.	.	.	.	.	.
16F\LL	.	.	.	.	.	.
16E\	.	.	.	.	.	.
16F\	.	.	.	.	.	.
16E\JJ)	.	.	.	.	.	.
!!LO:LB:g=original
=61	=61	=61	=61	=61	=61	=61
!	!LO:TX:a:t=a tempo	!	!	!	!	!
(16F\LL	8.f/L 8.a	f	2.r	.	.	.
16E\	.	.	.	.	.	.
16F\	.	.	.	.	.	.
16E\JJ	16g/Jk 16b-	.	.	.	.	.
*rep	*	*	*	*	*	*
16F\LL	4a\ 4cc	.	.	.	.	.
16E\	.	.	.	.	.	.
16F\	.	.	.	.	.	.
16E\JJ	.	.	.	.	.	.
*Xrep	*	*	*	*	*	*
*rep	*	*	*	*	*	*
16F\LL	4b-\ 4dd	.	.	.	.	.
16E\	.	.	.	.	.	.
16F\	.	.	.	.	.	.
16E\JJ	.	.	.	.	.	.
*Xrep	*	*	*	*	*	*
=62	=62	=62	=62	=62	=62	=62
*rep	*	*	*	*	*	*
16F\LL	8.a/L 8.cc	.	2.r	.	.	.
16E\	.	.	.	.	.	.
16F\	.	.	.	.	.	.
16E\JJ	16f/Jk 16a	.	.	.	.	.
16F\LL	2f\ 2a 2ff	.	.	.	.	.
16E\	.	.	.	.	.	.
16F\	.	.	.	.	.	.
16E\JJ	.	.	.	.	.	.
16F\LL	.	.	.	.	.	.
16E\	.	.	.	.	.	.
16F\	.	.	.	.	.	.
16E\JJ	.	.	.	.	.	.
*Xrep	*	*	*	*	*	*
=63	=63	=63	=63	=63	=63	=63
!	!LO:TX:t=P:problem:usunięte d	!	!	!	!	!
)(16D/LL	8.f/L	.	2.r	.	.	.
16C#X/	.	.	.	.	.	.
16D/	.	.	.	.	.	.
16C#/JJ	16e/Jk 16g	.	.	.	.	.
*rep	*	*	*	*	*	*
16D/LL	4f/ 4a	.	.	.	.	.
16C#/	.	.	.	.	.	.
16D/	.	.	.	.	.	.
16C#/JJ	.	.	.	.	.	.
*Xrep	*	*	*	*	*	*
*rep	*	*	*	*	*	*
16D/LL	4g/ 4b-	.	.	.	.	.
16C#/	.	.	.	.	.	.
16D/	.	.	.	.	.	.
16C#/JJ	.	.	.	.	.	.
*Xrep	*	*	*	*	*	*
=64	=64	=64	=64	=64	=64	=64
)(16D/LL	8.f/L 8.a	.	2.r	.	.	.
16C#X/	.	.	.	.	.	.
16D/	.	.	.	.	.	.
16C#/JJ	16d/Jk 16f	.	.	.	.	.
16D/LL	2d/ 2f 2dd	.	.	.	.	.
16C#/	.	.	.	.	.	.
16D/	.	.	.	.	.	.
16C#/JJ	.	.	.	.	.	.
16D/LL	.	.	.	.	.	.
16C#/	.	.	.	.	.	.
16D/	.	.	.	.	.	.
16Cn/JJ)	.	.	.	.	.	.
!!LO:LB:g=original
=65	=65	=65	=65	=65	=65	=65
!LO:TX:t=P:problem:4r poprawiona na 4BB-	!	!	!	!	!	!
4BB-/	(8ee\L	p	2.r	.	.	.
.	8dd\J)	.	.	.	.	.
4D\ 4A 4c	4f#X^/	.	.	.	.	.
4G\ 4B-	4g/	.	.	.	.	.
=66	=66	=66	=66	=66	=66	=66
4r	(8dd\L	.	2.r	.	.	.
.	8cc\J)	.	.	.	.	.
4C\ 4G 4B-	4e^/	.	.	.	.	.
4F\ 4A	4f/	.	.	.	.	.
=67	=67	=67	=67	=67	=67	=67
.	(8qdd/	f	.	.	.	.
*^	*	*	*	*	*	*
4r	2.C\	8cc\L)	.	2.r	.	.	.
.	.	8bn\	.	.	.	.	.
4G/ 4B-	.	8cc\	.	.	.	.	.
.	.	8cc#X\	.	.	.	.	.
4G/ 4B-	.	8dd\	.	.	.	.	.
.	.	8ee\J	.	.	.	.	.
=68	=68	=68	=68	=68	=68	=68	=68
!	!	!LO:TX:t=P:problem:usunięty znak segno na kresce taktowej	!	!LO:TX:t=P:problem:usunięty znak segno na kresce taktowej	!	!	!
8A/	8F\	8ff\	.	2.r	.	.	.
8r	8ryy	8r	.	.	.	.	.
2F\ 2A	2ryy	2f/	.	.	.	.	.
!!LO:LB:g=original
=69||	=69||	=69||	=69||	=69||	=69||	=69||	=69||
4r	2.FF\	8.f/L 8.a	.	8.a\	I	.	.
.	.	16g/Jk 16b-	.	16b-\	każ-	.	.
4F/	.	4a\ 4cc	.	4cc\	-de-	.	.
4F/	.	4b-\ 4dd	.	4dd\	-mu	.	.
=70	=70	=70	=70	=70	=70	=70	=70
4r	2.FF\	8.a/L 8.cc	.	8.cc\	mi-	.	.
.	.	16f/Jk 16a	.	16a/	-ło	.	.
4F/	.	2f\ 2a 2ff	.	2ff\	tu	.	.
4F/	.	.	.	.	.	.	.
=71	=71	=71	=71	=71	=71	=71	=71
4r	2.DD\	8.f/L	.	8.f/	chwy-	.	.
.	.	16e/Jk 16g	.	16g/	-cić	.	.
4D/	.	4f/ 4a	.	4a/	pier-	.	.
4D/	.	4g/ 4b-	.	4b-/	-sią	.	.
=72	=72	=72	=72	=72	=72	=72	=72
4r	2.DD\	8.f/L 8.a	.	8.a/	te-	.	.
.	.	16d/Jk 16f	.	16f/	-go	.	.
!	!	!LO:TX:b:t=V&colon; S&colon;	!	!	!	!	!
4D/	.	2d/ 2f 2dd	.	2dd\	tchu	.	.
4D/	.	.	.	.	.	.	.
*v	*v	*	*	*	*	*	*
!!LO:PB:g=original
=73	=73	=73	=73	=73	=73	=73
4AAA/ 4AA	8r	.	8.ee\	I	.	.
.	8G'/	.	.	.	.	.
.	.	.	16dd\	po	.	.
4r	(8c#X/L 8g	.	4cc#X\	świe-	.	.
.	8G/	.	.	.	.	.
4r	8c#/ 8g	.	4b-\	-cie	.	.
.	8G/J)	.	.	.	.	.
=74	=74	=74	=74	=74	=74	=74
4DD/ 4D	8r	.	8.a/	pu-	.	.
.	8A'/	.	.	.	.	.
.	.	.	16g/	-ścić	.	.
4r	(8d/L 8f	.	2f/	wzrok	.	.
.	8A/	.	.	.	.	.
4r	8d/ 8f	.	.	.	.	.
.	8A/J)	.	.	.	.	.
=75	=75	=75	=75	=75	=75	=75
.	.	.	(>8qf/	.	.	.
2.GGG/ 2.GG	8r	.	8.e/)	I	.	.
.	8B-|/	.	.	.	.	.
.	.	.	16d#X/	po	.	.
.	(8d/L 8e	.	4e/	świe-	.	.
.	8B-/	.	.	.	.	.
.	8d/ 8e	.	4b-/	-cie	.	.
.	8B-/J)	.	.	.	.	.
=76	=76	=76	=76	=76	=76	=76
8AAA\ 8AA	8G</ 8A< 8c#X	.	8.a/	pu-	.	.
8r	8r	.	.	.	.	.
.	.	.	16c#X/	-ścić	.	.
2DD\ 2D	2F</ 2A< 2d	.	2d/	wzrok	.	.
!!LO:LB:g=original
=77	=77	=77	=77	=77	=77	=77
*^	*	*	*	*	*	*
*	*	*tuplet	*	*	*	*	*
!	!	!LO:TUP:b	!	!	!	!	!
4r	2.GG\	(12e/L	.	2.r	.	.	.
.	.	12d#X/	.	.	.	.	.
.	.	12e/J	.	.	.	.	.
!	!	!LO:TUP:b	!	!	!	!	!
4BB-/ 4E	.	12f/L	.	.	.	.	.
.	.	12f#X/	.	.	.	.	.
.	.	12g/J	.	.	.	.	.
!	!	!LO:TUP:b	!	!	!	!	!
4BB-/ 4E	.	12g#X/L	.	.	.	.	.
.	.	12a/	.	.	.	.	.
.	.	12b-/J)	.	.	.	.	.
=78	=78	=78	=78	=78	=78	=78	=78
!	!	!LO:HP:t=crescendo	!	!	!	!	!
!	!	!LO:TUP:b	!	!	!	!	!
4r	2.AA\	(12a/L	<	2.r	.	.	.
.	.	12g#X/	[	.	.	.	.
.	.	12a/J	.	.	.	.	.
!	!	!LO:TUP:a	!	!	!	!	!
4D/ 4F	.	12b-\L	.	.	.	.	.
.	.	12bn\	.	.	.	.	.
.	.	12cc\J	.	.	.	.	.
!	!	!LO:TUP:a	!	!	!	!	!
4D/ 4F	.	12cc#X\L	.	.	.	.	.
.	.	12dd\	.	.	.	.	.
.	.	12dd#X\J)	.	.	.	.	.
=79	=79	=79	=79	=79	=79	=79	=79
4r	2.AA\	(16ee\LL	<	2.r	.	.	.
.	.	16dd#X\	.	.	.	.	.
.	.	16ee\	.	.	.	.	.
.	.	16ff\JJ	.	.	.	.	.
4E/ 4G	.	16ff#X\LL	.	.	.	.	.
.	.	16gg\	.	.	.	.	.
.	.	16gg#X\	.	.	.	.	.
.	.	16aa\JJ	.	.	.	.	.
4E/ 4G	.	16bb-\LL	.	.	.	.	.
.	.	16bbn\	.	.	.	.	.
.	.	16ccc\	.	.	.	.	.
.	.	16ccc#X\JJ	[[	.	.	.	.
=80	=80	=80	=80	=80	=80	=80	=80
8F/	8D\	8ddd\)	.	2.r	.	.	.
8r	8ryy	8r	.	.	.	.	.
2GG\ 2G	2ryy	2g/	f	.	.	.	.
*v	*v	*	*	*	*	*	*
!!LO:LB:g=original
=81	=81	=81	=81	=81	=81	=81
(<8qF#X/	.	.	.	.	.	.
*	*	*	*Xtuplet	*	*	*
!	!	!	!	!	!	!LO:DY:a
4C\) 4G	4c^/ 4e	f	(12e/L	A	.	f
.	.	.	12f#X/J)	.	.	.
.	.	.	12g/	Kto	.	.
4C\ 4G	4c/ 4e	p	4cc\	wie-	.	.
4C\ 4G	4c/ 4e	.	4ee\	-le	.	.
=82	=82	=82	=82	=82	=82	=82
(<8qF#X/	.	.	.	.	.	.
4C\) 4G	4Bn^/ 4f	.	8.dd\	w świe-	.	.
.	.	.	16bn\	-cie	.	.
4C\ 4G	4c/ 4e	.	2cc\	znał	.	.
4C\ 4G	4c/ 4e	.	.	.	.	.
=83	=83	=83	=83	=83	=83	=83
(<8qF#X/	.	.	.	.	.	.
4C\) 4G	4c/ 4e	f	(12e/L	Ten	.	.
.	.	.	12f#X/J)	.	.	.
.	.	.	12g/	sta-	.	.
4C\ 4G	4c/ 4e	p	4cc\	-ną-	.	.
4C\ 4G	4c/ 4e	.	4ee\	-wszy	.	.
=84	=84	=84	=84	=84	=84	=84
(<8qF#X/	.	.	.	.	.	.
4C\) 4G	4Bn/ 4f	f	8.dd\	wśród	.	.
.	.	.	16bn\	tych	.	.
2C\ 2G	2c^/ 2e	.	2cc\	skał	.	.
=85	=85	=85	=85	=85	=85	=85
(<8qF#X/	.	.	.	.	.	.
*	*Xtuplet	*	*	*	*	*
4C\) 4G	12e'/L	.	2.r	.	.	.
.	(12f#X/	.	.	.	.	.
.	12g/J)	.	.	.	.	.
4C\ 4G	4e/ 4g 4cc	.	.	.	.	.
4C\ 4G	4g/ 4cc 4ee	.	.	.	.	.
!!LO:LB:g=original
=86	=86	=86	=86	=86	=86	=86
(<8qF#X/	.	.	.	.	.	.
4C\) 4G	8.f/L 8.g 8.dd	.	2.r	.	.	.
.	16f/Jk 16g 16bn	.	.	.	.	.
4C\ 4G	2e/ 2g 2cc	.	.	.	.	.
4C\ 4G	.	.	.	.	.	.
=87	=87	=87	=87	=87	=87	=87
*rep	*	*	*	*	*	*
(<8qF#X/	.	.	.	.	.	.
4C\) 4G	12e/L	.	2.r	.	.	.
.	12f#X/	.	.	.	.	.
.	12g/J	.	.	.	.	.
4C\ 4G	4e/ 4cc	.	.	.	.	.
4C\ 4G	4g/ 4cc 4ee	.	.	.	.	.
*Xrep	*	*	*	*	*	*
=88	=88	=88	=88	=88	=88	=88
(<8qF#X/	.	.	.	.	.	.
4C\) 4G	8.f/L 8.g 8.dd	.	2.r	.	.	.
.	16f/Jk 16g 16bn	.	.	.	.	.
2C\ 2G	2e^/ 2g 2cc	.	.	.	.	.
=89	=89	=89	=89	=89	=89	=89
!	!	!	!LO:TX:a:t=rall&colon;	!	!	!
4CC/ 4C	8.g/L 8.b-	p	8.b-/	Pój-	.	.
.	16f/Jk 16a	.	16a/	-dzie	.	.
4CC/ 4C	4e/ 4g	.	4g/	mo-	.	.
4CC#X/ 4C#X	4e/ 4a	.	4a/	-że	.	.
=90	=90	=90	=90	=90	=90	=90
8.DD/L 8.D	8.d/L 8.f	.	8.f/	da-	.	.
16BBB-/Jk 16BB-	16d/Jk 16g	.	16g/	-lej	.	.
2AAA/ 2AA	2c#X/ 2a	.	2a/	krok?	.	.
!!LO:PB:g=original
=91	=91	=91	=91	=91	=91	=91
4BBB-/ 4BB-	8.B-/L 8.d 8.g	.	8.g/	Pój-	.	.
.	16B-/Jk 16d-X	.	16d-X/	-dzie	.	.
4CC/ 4C	4A/ 4c	.	4c/	da-	.	.
4CC/ 4C	4A/ 4c 4f	.	4f/	-léj	.	.
=92	=92	=92	=92	=92	=92	=92
4CC\ 4C	4G</ 4B- 4c 4e	.	8.a/	da-	.	.
.	.	.	16g/	-léj	.	.
2FF\ 2F	2A</ 2c 2f	.	2f/	krok?	.	.
=93	=93	=93	=93	=93	=93	=93
(16F\LL	8.f/L 8.a	f	2.r	.	.	.
16E\	.	.	.	.	.	.
16F\	.	.	.	.	.	.
16E\JJ	16g/Jk 16b-	.	.	.	.	.
*rep	*	*	*	*	*	*
16F\LL	4a\ 4cc	.	.	.	.	.
16E\	.	.	.	.	.	.
16F\	.	.	.	.	.	.
16E\JJ	.	.	.	.	.	.
*Xrep	*	*	*	*	*	*
*rep	*	*	*	*	*	*
16F\LL	4b-\ 4dd	.	.	.	.	.
16E\	.	.	.	.	.	.
16F\	.	.	.	.	.	.
16E\JJ	.	.	.	.	.	.
*Xrep	*	*	*	*	*	*
=94	=94	=94	=94	=94	=94	=94
)(16F\LL	8.a\L 8.cc	.	2.r	.	.	.
16E\	.	.	.	.	.	.
16F\	.	.	.	.	.	.
16E\JJ	16f\Jk 16a	.	.	.	.	.
*rep	*	*	*	*	*	*
16F\LL	2f\ 2a 2ff	.	.	.	.	.
16E\	.	.	.	.	.	.
16F\	.	.	.	.	.	.
16E\JJ	.	.	.	.	.	.
*Xrep	*	*	*	*	*	*
*rep	*	*	*	*	*	*
16F\LL	.	.	.	.	.	.
16E\	.	.	.	.	.	.
16F\	.	.	.	.	.	.
16E\JJ	.	.	.	.	.	.
*Xrep	*	*	*	*	*	*
=95	=95	=95	=95	=95	=95	=95
)(16D/LL	8.f/L	.	2.r	.	.	.
16C#X/	.	.	.	.	.	.
16D/	.	.	.	.	.	.
16C#/JJ	16e/Jk 16g	.	.	.	.	.
*rep	*	*	*	*	*	*
16D/LL	4f/ 4a	.	.	.	.	.
16C#/	.	.	.	.	.	.
16D/	.	.	.	.	.	.
16C#/JJ	.	.	.	.	.	.
*Xrep	*	*	*	*	*	*
*rep	*	*	*	*	*	*
16D/LL	4g/ 4b-	.	.	.	.	.
16C#/	.	.	.	.	.	.
16D/	.	.	.	.	.	.
16C#/JJ	.	.	.	.	.	.
*Xrep	*	*	*	*	*	*
=96	=96	=96	=96	=96	=96	=96
)(16D/LL	8.f/L 8.a	.	2.r	.	.	.
16C#X/	.	.	.	.	.	.
16D/	.	.	.	.	.	.
16C#/JJ	16d/Jk 16f	.	.	.	.	.
16D/LL	2d/ 2f 2dd	.	.	.	.	.
16C#/	.	.	.	.	.	.
16D/	.	.	.	.	.	.
16C#/JJ	.	.	.	.	.	.
16D/LL	.	.	.	.	.	.
16C#/	.	.	.	.	.	.
16D/	.	.	.	.	.	.
16Cn/JJ)	.	.	.	.	.	.
!!LO:LB:g=original
=97	=97	=97	=97	=97	=97	=97
!LO:TX:t=P:problem:4r poprawiona na 4BB-	!	!	!	!	!	!
4BB-/	(8ee\L	p	2.r	.	.	.
.	8dd\J)	.	.	.	.	.
4D\ 4A 4c	4f#X/	.	.	.	.	.
4G\ 4B-	4g/	.	.	.	.	.
=98	=98	=98	=98	=98	=98	=98
!LO:TX:t=P:problem:4r wpisana ołówkiem	!	!	!	!	!	!
4r	(8dd\L	.	2.r	.	.	.
.	8cc\J)	.	.	.	.	.
4C\ 4G 4B-	4e/	.	.	.	.	.
4F\ 4A	4f/	.	.	.	.	.
=99	=99	=99	=99	=99	=99	=99
.	(8qdd/	f	.	.	.	.
*^	*	*	*	*	*	*
4r	2.C\	8cc\L)	.	2.r	.	.	.
.	.	8bn'\	.	.	.	.	.
4G/ 4B-	.	8cc'\	.	.	.	.	.
.	.	8cc#X'\	.	.	.	.	.
4G/ 4B-	.	8dd'\	.	.	.	.	.
.	.	8ee'\J	.	.	.	.	.
=100	=100	=100	=100	=100	=100	=100	=100
8A/	8F\	8ff\	.	2.r	.	.	.
8r	8ryy	8r	.	.	.	.	.
8FF/L 8F	2ryy	4f/	.	.	.	.	.
8EE-X/ 8E-X	.	.	.	.	.	.	.
8DD/ 8D	.	4r	.	.	.	.	.
8CC/J 8C	.	.	.	.	.	.	.
*v	*v	*	*	*	*	*	*
=101	=101	=101	=101	=101	=101	=101
*	*tuplet	*	*tuplet	*	*	*
!	!LO:TUP:a:problem:klamra łukowa	!	!LO:TUP:a:problem:klamra łukowa	!	!	!
(8qBBB-/	.	.	.	.	.	.
!	!LO:TUP:b	!	!LO:TUP:problem:klamra łukowa, numer	!	!	!
(16BB-/LL)	12d/L 12f	p	12f/L	Bo	.	.
16AA/	.	.	.	.	.	.
.	12c#X/ 12en	.	12en/J	.	.	.
16BB-/	.	.	.	.	.	.
.	12d/J 12f	.	12f/	ta-	.	.
16AA/JJ	.	.	.	.	.	.
*rep	*	*	*	*	*	*
16BB-/LL	4d/ 4b-	.	4b-\	-ie-	.	.
16AA/	.	.	.	.	.	.
16BB-/	.	.	.	.	.	.
16AA/JJ	.	.	.	.	.	.
*Xrep	*	*	*	*	*	*
*rep	*	*	*	*	*	*
16BB-/LL	4f/ 4b- 4dd	.	4dd\	-mny	.	.
16AA/	.	.	.	.	.	.
16BB-/	.	.	.	.	.	.
16AA/JJ	.	.	.	.	.	.
*Xrep	*	*	*	*	*	*
=102	=102	=102	=102	=102	=102	=102
)(16BB-/LL	8.e-X/L 8.g-X 8.cc	.	8.cc\	ja-	.	.
16AA/	.	.	.	.	.	.
16BB-/	.	.	.	.	.	.
16AA/JJ	16c/Jk 16e- 16a	.	16a\	-kiś	.	.
*rep	*	*	*	*	*	*
16BB-/LL	2d/ 2b-	.	2b-\	wiew	.	.
16AA/	.	.	.	.	.	.
16BB-/	.	.	.	.	.	.
16AA/JJ	.	.	.	.	.	.
*Xrep	*	*	*	*	*	*
*rep	*	*	*	*	*	*
16BB-/LL	.	.	.	.	.	.
16AA/	.	.	.	.	.	.
16BB-/	.	.	.	.	.	.
16AAX/JJ	.	.	.	.	.	.
*Xrep	*	*	*	*	*	*
!!LO:LB:g=original
=103	=103	=103	=103	=103	=103	=103
!	!LO:TUP:a:problem:klamra łukowa	!	!LO:TUP:a:problem:klamra łukowa	!	!	!
)(16BB-/LL	12d/L 12f	.	12f/L	Tchnie	.	.
16AA/	.	.	.	.	.	.
.	12c#X/ 12en	.	12en/J	.	.	.
16BB-/	.	.	.	.	.	.
.	12d/J 12f	.	12f/	w pu-	.	.
16AA/JJ	.	.	.	.	.	.
*rep	*	*	*	*	*	*
16BB-/LL	4d/ 4b-	.	4b-\	-sty-	.	.
16AA/	.	.	.	.	.	.
16BB-/	.	.	.	.	.	.
16AA/JJ	.	.	.	.	.	.
*Xrep	*	*	*	*	*	*
*rep	*	*	*	*	*	*
16BB-/LL	4f/ 4b- 4dd	.	4dd\	-ni	.	.
16AA/	.	.	.	.	.	.
16BB-/	.	.	.	.	.	.
16AA/JJ	.	.	.	.	.	.
*Xrep	*	*	*	*	*	*
=104	=104	=104	=104	=104	=104	=104
)(16BB-/LL	8.e-X/L 8.g-X 8.cc	.	8.cc\	od	.	.
16AA/	.	.	.	.	.	.
16BB-/	.	.	.	.	.	.
16AA/JJ	16c/Jk 16e- 16a	.	16a\	tych	.	.
16BB-/LL	2d/ 2b-	.	2b-\	drzew	.	.
16AA/	.	.	.	.	.	.
16BB-/	.	.	.	.	.	.
16AA/JJ	.	.	.	.	.	.
16BB-/LL	.	.	.	.	.	.
16AA/	.	.	.	.	.	.
16BB-/)	.	.	.	.	.	.
16C'/JJ	.	.	.	.	.	.
=105	=105	=105	=105	=105	=105	=105
(2D\	4r	.	8.f#X/	Jak-	.	.
.	.	.	16a/	-by	.	.
.	4A/ 4c 4d 4f#X	.	4dd\	mo-	.	.
!	!LO:TX:t=P:problem:usunięte f	!	!	!	!	!
8En\L	4A/ 4c 4d	.	4cc\	-dłów	.	.
8F#X\J)	.	.	.	.	.	.
=106	=106	=106	=106	=106	=106	=106
!LO:TX:t=P:problem:4GG poprawione na 4G	!	!	!	!	!	!
4G\	4r	.	8.b-\	Ci-	.	.
!	!	!	!LO:TX:t=P:problem:16a poprawione na 16d	!	!	!
.	.	.	16d/	-chy	.	.
!LO:TX:t=P:problem:4r poprawione na 4GG	!LO:TX:t=P:problem:usunięte g	!	!LO:SIC:v:l:s=szmer:	!	!	!
4GG/	4B-/ 4d	.	2g/	smer;	.	.
!LO:TX:t=P:problem:4r poprawione na 4BB-	!LO:TX:t=P:problem:usunięte B-	!	!	!	!	!
4BB-/	4d/ 4g	.	.	.	.	.
=107	=107	=107	=107	=107	=107	=107
4CC/ 4C	8.c/L 8.e-X 8.a	.	8.a/	Jak-	.	.
.	16c/Jk 16e-	.	16e-X/	-by	.	.
!	!LO:TX:t=P:problem:usunięte g	!	!	!	!	!
4DD/ 4D	4B-/ 4d	.	4d/	mo-	.	.
4DD/ 4D	4B-/ 4d 4g	.	4g/	-dłów	.	.
=108	=108	=108	=108	=108	=108	=108
4DD/ 4D	4c/ 4d 4f#X	.	8.b-/	Ci-	.	.
.	.	.	16a/	-chy	.	.
!	!	!	!LO:SIC:v:l:s=szmer:	!	!	!
2GG\ 2G	2B-/ 2d 2g	.	2g/	smer:	.	.
!!LO:LB:g=original
=109	=109	=109	=109	=109	=109	=109
!	!LO:TX:t=P:problem:łuki	!	!	!	!	!
(16E\LL	(2.G/ 2.c#X 2.g	.	8.g/	Bo	.	.
16D\	.	.	.	.	.	.
16E\	.	.	.	.	.	.
16D\JJ	.	.	16g/	kto	.	.
16E\LL	.	.	4b-/	prze-	.	.
16D\	.	.	.	.	.	.
16E\	.	.	.	.	.	.
16D\JJ	.	.	.	.	.	.
!LO:TX:t=P:problem:mixed beam	!	!	!	!	!	!
16E\LL	.	.	4g/	-szedł	.	.
16D\	.	.	.	.	.	.
16E\)	.	.	.	.	.	.
16EE|</JJ	.	.	.	.	.	.
=110	=110	=110	=110	=110	=110	=110
(16D/LL	2.A/) 2.d 2.f#X	.	8.f#X/	próg	.	.
16C#X/	.	.	.	.	.	.
16D/	.	.	.	.	.	.
16C#/JJ	.	.	16a/	tych	.	.
16D/LL	.	.	2d/	bram	.	.
16C#/	.	.	.	.	.	.
16D/	.	.	.	.	.	.
16C#/JJ	.	.	.	.	.	.
!LO:TX:t=P:problem:mixed beam	!	!	!	!	!	!
16D/LL	.	.	.	.	.	.
16C#/	.	.	.	.	.	.
16D/)	.	.	.	.	.	.
16DD|/JJ	.	.	.	.	.	.
=111	=111	=111	=111	=111	=111	=111
(16E\LL	2.G/ 2.c#X 2.g	.	8.g/	Już	.	.
16D\	.	.	.	.	.	.
16E\	.	.	.	.	.	.
16D\JJ	.	.	16g/	dla	.	.
16E\LL	.	.	4b-/	nie-	.	.
16D\	.	.	.	.	.	.
16E\	.	.	.	.	.	.
16D\JJ	.	.	.	.	.	.
!LO:TX:t=P:problem:mixed beam	!	!	!	!	!	!
16E\LL	.	.	4g/	-go	.	.
16D\	.	.	.	.	.	.
16E\)	.	.	.	.	.	.
16EE\JJ|	.	.	.	.	.	.
=112	=112	=112	=112	=112	=112	=112
(16D/LL	2.A/ 2.d 2.f#X	.	8.f#X/	gi-	.	.
16C#X/	.	.	.	.	.	.
16D/	.	.	.	.	.	.
16C#/JJ	.	.	16a/	-nie	.	.
16D/LL	.	.	2dd\	tam	.	.
16C#/	.	.	.	.	.	.
16D/	.	.	.	.	.	.
16C#/JJ	.	.	.	.	.	.
!LO:TX:t=P:problem:mixed beam	!	!	!	!	!	!
16D/LL	.	.	.	.	.	.
16C#/	.	.	.	.	.	.
16D/)	.	.	.	.	.	.
!LO:TX:t=P:problem:16DD poprawione na 16Cn	!	!	!	!	!	!
16Cn/JJ	.	.	.	.	.	.
=113	=113	=113	=113	=113	=113	=113
!LO:TX:t=P:problem:4BB- poprawione na 4B-	!	!	!	!	!	!
4BB-/	4B-/ 4d 4g	f	8.g/	Spraw	.	.
.	.	.	16b-/	świa-	.	.
!LO:TX:t=P:problem:4CC poprawione na 4C	!	!	!	!	!	!
4C/	4A/ 4c 4f	.	4a/	-to-	.	.
!LO:TX:t=P:problem:4CC poprawione na 4C	!	!	!	!	!	!
4C/	4A/ 4c 4f	.	4ff\	-wych	.	.
=114	=114	=114	=114	=114	=114	=114
!LO:TX:t=P:problem:3 takty zapisane na doklejonej kartce	!	!	!	!	!	!
8CC/ 8C	8G/ 8B- 8e	.	8.g/	nę-	.	.
8r	8r	.	.	.	.	.
.	.	.	16cc\	-tny	.	.
2DD\ 2D	2F/ 2A 2f	.	2a/	wir	.	.
=115	=115	=115	=115	=115	=115	=115
4BBB-/ 4BB-	4B-/ 4d 4g	f	8.g/	Spraw	.	.
.	.	.	16b-/	świa-	.	.
4CC/ 4C	4A/ 4c 4f	.	(8a/L	-to-	.	.
.	.	.	8cc/J)	.	.	.
4CC/ 4C	4A/ 4c 4f	.	(8gg\L	-wych	.	.
.	.	.	8ff\J)	.	.	.
=116	=116	=116	=116	=116	=116	=116
8CC/ 8C	8G/ 8B- 8c 8e	.	8.g/	nę-	.	.
8r	8r	.	.	.	.	.
.	.	.	16cc\	-tny	.	.
2FF\ 2F	2A/ 2c 2f	.	2f/	wir.	.	.
!!LO:PB:g=original
=117	=117	=117	=117	=117	=117	=117
(<8qF#X/	.	.	.	.	.	.
*	*Xtuplet	*	*	*	*	*
4C\) 4G	12e'/L	f	2.r	.	.	.
.	(12f#X/	.	.	.	.	.
.	12g/J)	.	.	.	.	.
4C\ 4G	4e/ 4cc	.	.	.	.	.
4C\ 4G	4g/ 4cc 4ee	.	.	.	.	.
=118	=118	=118	=118	=118	=118	=118
*rep	*	*	*	*	*	*
(<8qF#X/	.	.	.	.	.	.
4C\) 4G	8.f/L 8.g 8.dd	.	2.r	.	.	.
.	16f/Jk 16g 16bn	.	.	.	.	.
4C\ 4G	2e/ 2g 2cc	.	.	.	.	.
4C\ 4G	.	.	.	.	.	.
*Xrep	*	*	*	*	*	*
=119	=119	=119	=119	=119	=119	=119
*rep	*	*	*	*	*	*
(8qF#X/	.	.	.	.	.	.
4C\) 4G	12e'/L	.	2.r	.	.	.
.	(12f#X/	.	.	.	.	.
.	12g/J)	.	.	.	.	.
4C\ 4G	4e/ 4cc	.	.	.	.	.
4C\ 4G	4g/ 4cc 4ee	.	.	.	.	.
*Xrep	*	*	*	*	*	*
=120	=120	=120	=120	=120	=120	=120
!	!LO:TX:t=P:problem:usunięte b-	!	!	!	!	!
(<8qF#X/	.	.	.	.	.	.
4C\) 4G	8.f/L 8.g 8.dd	.	2.r	.	.	.
.	16f/Jk 16g 16bn	.	.	.	.	.
2C\ 2G	2e/ 2g 2cc	.	.	.	.	.
=121	=121	=121	=121	=121	=121	=121
4CC/ 4C	8.g/L 8.b-	p	8.b-/	Już	.	.
.	16f/Jk 16a	.	16a/	dla	.	.
4CC/ 4C	4e/ 4g	.	4g/	nie-	.	.
4CC#X/ 4C#X	4e/ 4a	.	4a/	-go	.	.
=122	=122	=122	=122	=122	=122	=122
8.DD/L 8.D	8.d/L 8.f	.	8.f/	gi-	.	.
16BBB-/Jk 16BB-	16d/Jk 16g	.	16g/	-nie	.	.
2AAA/ 2AA	2c#X/ 2a	.	2a/	tam	.	.
!!LO:LB:g=original
=123	=123	=123	=123	=123	=123	=123
4BBB-/ 4BB-	8.B-/L 8.d 8.g	.	8.g/	Spraw	.	.
!	!	!	!LO:TX:t=P:problem:tekst: światowych poprawione na światowych nętny	!	!	!
.	16B-/Jk 16d-X	.	16d-X/	świa-	.	.
4CC/ 4C	4A/ 4c	.	16c/LL	-to-	.	.
.	.	.	16f/JJ	.	.	.
.	.	.	16a/LL	-wych	.	.
.	.	.	16cc/JJ	.	.	.
4CC/ 4C	4A/ 4c 4f	.	8.ff\	nę-	.	.
.	.	.	16cc\	-tny	.	.
=124	=124	=124	=124	=124	=124	=124
.	.	.	(8qff;/	.	.	.
4CC;/ 4C	4G;/ 4B- 4c 4e	.	8.ee\)	nę-	.	.
.	.	.	16cc\	-tny	.	.
(16F\LL	2A/ 2c 2f	.	2f\ 2ff	wir.	.	.
16E\	.	.	.	.	.	.
16F\	.	.	.	.	.	.
16E\JJ	.	.	.	.	.	.
16F\LL	.	.	.	.	.	.
16E\	.	.	.	.	.	.
16F\	.	.	.	.	.	.
16E\JJ)	.	.	.	.	.	.
=125	=125	=125	=125	=125	=125	=125
(16F\LL	8.f/L 8.a	f	2.r	.	.	.
16E\	.	.	.	.	.	.
16F\	.	.	.	.	.	.
16E\JJ	16g/Jk 16b-	.	.	.	.	.
*rep	*	*	*	*	*	*
16F\LL	4a/ 4cc	.	.	.	.	.
16E\	.	.	.	.	.	.
16F\	.	.	.	.	.	.
16E\JJ	.	.	.	.	.	.
*Xrep	*	*	*	*	*	*
*rep	*	*	*	*	*	*
16F\LL	4a\ 4cc 4ff	.	.	.	.	.
16E\	.	.	.	.	.	.
16F\	.	.	.	.	.	.
16E\JJ	.	.	.	.	.	.
*Xrep	*	*	*	*	*	*
=126	=126	=126	=126	=126	=126	=126
!	!LO:TX:t=P:problem:usunięte f	!	!	!	!	!
)(16F\LL	8.a/L 8.cc	.	2.r	.	.	.
16E\	.	.	.	.	.	.
16F\	.	.	.	.	.	.
16E\JJ	16f/Jk 16a	.	.	.	.	.
*rep	*	*	*	*	*	*
16F\LL	2f\ 2a 2ff	.	.	.	.	.
16E\	.	.	.	.	.	.
16F\	.	.	.	.	.	.
16E\JJ	.	.	.	.	.	.
*Xrep	*	*	*	*	*	*
*rep	*	*	*	*	*	*
16F\LL	.	.	.	.	.	.
16E\	.	.	.	.	.	.
16F\	.	.	.	.	.	.
16E\JJ	.	.	.	.	.	.
*Xrep	*	*	*	*	*	*
=127	=127	=127	=127	=127	=127	=127
)(16D/LL	8.f/L	.	2.r	.	.	.
16C#X/	.	.	.	.	.	.
16D/	.	.	.	.	.	.
16C#/JJ	16e/Jk 16g	.	.	.	.	.
*rep	*	*	*	*	*	*
16D/LL	4f/ 4a	.	.	.	.	.
16C#/	.	.	.	.	.	.
16D/	.	.	.	.	.	.
16C#/JJ	.	.	.	.	.	.
*Xrep	*	*	*	*	*	*
*rep	*	*	*	*	*	*
16D/LL	4g/ 4b-	.	.	.	.	.
16C#/	.	.	.	.	.	.
16D/	.	.	.	.	.	.
16C#/JJ	.	.	.	.	.	.
*Xrep	*	*	*	*	*	*
=128	=128	=128	=128	=128	=128	=128
)(16D/LL	8.f/L 8.a	.	2.ryy	.	.	.
16C#X/	.	.	.	.	.	.
16D/	.	.	.	.	.	.
16C#/JJ	16d/Jk 16f	.	.	.	.	.
*rep	*	*	*	*	*	*
16D/LL	2d/ 2f 2dd	.	.	.	.	.
16C#/	.	.	.	.	.	.
16D/	.	.	.	.	.	.
16C#/JJ	.	.	.	.	.	.
*Xrep	*	*	*	*	*	*
16D/LL	.	.	.	.	.	.
16C#/	.	.	.	.	.	.
16D/	.	.	.	.	.	.
16Cn/JJ)	.	.	.	.	.	.
!!LO:LB:g=original
=129	=129	=129	=129	=129	=129	=129
4BB-/	(8ee\L	.	2.r	.	.	.
.	8dd\J)	.	.	.	.	.
4D\ 4A 4c	4f#X/	.	.	.	.	.
4G\ 4B-	4g/	.	.	.	.	.
=130	=130	=130	=130	=130	=130	=130
4r	(8dd\L	.	2.r	.	.	.
.	8cc\J)	.	.	.	.	.
4C\ 4G 4B-	4e/	.	.	.	.	.
4F\ 4A	4f/	.	.	.	.	.
=131	=131	=131	=131	=131	=131	=131
.	(8qdd/	.	.	.	.	.
*^	*	*	*	*	*	*
4r	2.C\	8cc\L)	.	2.r	.	.	.
.	.	8bn'\	.	.	.	.	.
4G/ 4B-	.	8cc'\	.	.	.	.	.
.	.	8cc#X'\	.	.	.	.	.
4G/ 4B-	.	8dd'\	.	.	.	.	.
.	.	8ee'\J	.	.	.	.	.
=132	=132	=132	=132	=132	=132	=132	=132
8A/	8F\	8ff\	.	2.r	.	.	.
8r	8ryy	8r	.	.	.	.	.
2A/	2F\	2f/	.	.	.	.	.
*v	*v	*	*	*	*	*	*
==	==	==	==	==	==	==
*-	*-	*-	*-	*-	*-	*-
!!!system-decoration: s1{(s2,s3)}
!!!RDF**kern: > = above
!!!RDF**kern: < = below
!!!RDF**kern: | = vertical stroke
!!!AIN: 2 empty 1 forte
!!!ENC: Katarzyna Serwa
!!!END: 2021-05-20
